packages/sources/icons/src/vitamix/bank-card-line.svg

<svg width="16" height="16" viewBox="0 0 16 16" fill="none" xmlns="http://www.w3.org/2000/svg">
<path fill-rule="evenodd" clip-rule="evenodd" d="M14 2H2C1.63181 2 1.33333 2.29848 1.33333 2.66667V13.3333C1.33333 13.7015 1.63181 14 2 14H14C14.3682 14 14.6667 13.7015 14.6667 13.3333V2.66667C14.6667 2.29848 14.3682 2 14 2ZM2.66667 7.33333H13.3333V12.6667H2.66667V7.33333ZM13.3333 6V3.33333H2.66667V6H13.3333ZM12 10H9.33333V11.3333H12V10Z" fill="#001018"/>
</svg>

<svg width="16" height="16" fill="none" xmlns="http://www.w3.org/2000/svg"><path fill-rule="evenodd" clip-rule="evenodd" d="M14 2H2a.667.667 0 0 0-.667.667v10.666c0 .368.299.667.667.667h12a.667.667 0 0 0 .667-.667V2.667A.667.667 0 0 0 14 2zM2.667 7.333h10.666v5.334H2.667V7.333zM13.333 6V3.333H2.667V6h10.666zM12 10H9.333v1.333H12V10z" fill="#001018"/></svg>
